Themes/OneUI/assets/svg/ic_settings_development.svg

<svg width="28" height="28" viewBox="0 0 28 28" fill="none" xmlns="http://www.w3.org/2000/svg">
<g clip-path="url(#clip0_1_2152)">
<path d="M24.856 3.14401C23.13 1.52161 20.7739 0.601214 18.1738 0.256914C15.6907 -0.072186 14 0.00881404 14 0.00881404C14 0.00881404 12.309 -0.072186 9.82579 0.256914C7.22579 0.601214 4.86979 1.52161 3.14429 3.14401C1.52149 4.86981 0.601191 7.22591 0.256691 9.82591C-0.0724094 12.3089 0.0088906 13.9999 0.0088906 13.9999C0.0088906 13.9999 -0.0724094 15.6907 0.256691 18.1739C0.601191 20.7737 1.52149 23.13 3.14409 24.8558C4.86979 26.4784 7.22579 27.3986 9.82579 27.7433C12.309 28.0722 14 27.9912 14 27.9912C14 27.9912 15.6907 28.0722 18.1738 27.7433C20.7739 27.3986 23.13 26.4784 24.8556 24.8558C26.4786 23.13 27.3988 20.7737 27.7433 18.1739C28.0722 15.6907 27.9912 13.9999 27.9912 13.9999C27.9912 13.9999 28.0722 12.3089 27.7433 9.82591C27.3988 7.22591 26.4786 4.86981 24.856 3.14401Z" fill="#8B8B8B"/>
<path d="M18.6749 6.77706C19.1575 6.77706 19.5975 6.96276 19.9272 7.26646C20.2597 7.57276 20.4799 7.99896 20.519 8.48346L20.5248 10.4921C20.5248 10.8613 20.7068 11.3181 20.9521 11.6072L22.0522 12.6501C22.4244 12.999 22.6378 13.4906 22.6378 14.0001C22.6378 14.453 22.4692 14.8925 22.165 15.2352L21.0543 16.286C20.7823 16.5413 20.5771 16.9746 20.5334 17.363L20.5248 19.3731C20.5248 19.8557 20.3392 20.2958 20.0354 20.6255C19.7292 20.9579 19.303 21.1781 18.8184 21.2173L16.4599 21.2231C16.2248 21.2231 16.0124 21.128 15.8588 20.9743C15.7049 20.8204 15.6098 20.6078 15.6098 20.3731C15.6098 20.1593 15.6887 19.9639 15.819 19.8145C15.9523 19.6616 16.1395 19.557 16.3512 19.53L18.5859 19.5234L18.8249 17.5032C18.8266 16.6852 19.1822 15.8014 19.75 15.1886L20.8246 14.1715L19.8865 12.9504C19.3002 12.3977 18.8919 11.5152 18.8321 10.6901L18.8252 8.71746L16.4546 8.47706C16.2217 8.47566 16.0113 8.38086 15.8588 8.22826C15.7049 8.07436 15.6098 7.86176 15.6098 7.62706C15.6098 7.41326 15.6887 7.21786 15.819 7.06846C15.9523 6.91556 16.1395 6.81096 16.3512 6.78396L18.6749 6.77706ZM11.5422 6.77686C11.7768 6.77686 11.9893 6.87206 12.1431 7.02586C12.297 7.17976 12.3921 7.39226 12.3921 7.62686C12.3921 7.84056 12.3132 8.03586 12.1828 8.18526C12.0494 8.33826 11.8621 8.44296 11.6506 8.46996L9.4141 8.47656L9.1751 10.4988C9.1736 11.3547 8.8419 12.1832 8.2547 12.8088L7.1754 13.8286L8.1135 15.0516C8.7083 15.6118 9.1095 16.476 9.168 17.3085L9.1748 19.2825L11.5474 19.5229C11.7799 19.5243 11.9904 19.6192 12.1431 19.7719C12.297 19.9258 12.3921 20.1383 12.3921 20.3729C12.3921 20.5866 12.3132 20.7819 12.1828 20.9313C12.0494 21.0843 11.8621 21.189 11.6506 21.216L9.3251 21.2229C8.8422 21.2229 8.4022 21.0373 8.0726 20.7337C7.7401 20.4274 7.5201 20.0012 7.481 19.5165L7.4752 17.5089C7.4752 17.134 7.2972 16.6856 7.0492 16.3955L5.9469 15.349C5.5747 15.0011 5.3622 14.5095 5.3622 13.9999C5.3622 13.5479 5.5308 13.1085 5.835 12.7659L6.9448 11.7149C7.2443 11.4347 7.4304 11.0516 7.4676 10.6547L7.4752 8.62686C7.4752 8.14416 7.6607 7.70396 7.9644 7.37426C8.2705 7.04196 8.6966 6.82176 9.1814 6.78266L11.5422 6.77686Z" fill="white" stroke="white" stroke-width="0.2"/>
</g>
<defs>
<clipPath id="clip0_1_2152">
<rect width="28" height="28" fill="white"/>
</clipPath>
</defs>
</svg>

<?xml version="1.0" encoding="UTF-8" standalone="no"?>
<svg
   width="28.000021"
   height="28.000021"
   viewBox="0 0 28.000021 28.000021"
   fill="none"
   version="1.1"
   id="svg929"
   sodipodi:docname="ic_settings_development.svg"
   xmlns:inkscape="http://www.inkscape.org/namespaces/inkscape"
   xmlns:sodipodi="http://sodipodi.sourceforge.net/DTD/sodipodi-0.dtd"
   xmlns="http://www.w3.org/2000/svg"
   xmlns:svg="http://www.w3.org/2000/svg">
  <sodipodi:namedview
     id="namedview931"
     pagecolor="#ffffff"
     bordercolor="#666666"
     borderopacity="1.0"
     inkscape:showpageshadow="2"
     inkscape:pageopacity="0.0"
     inkscape:pagecheckerboard="0"
     inkscape:deskcolor="#d1d1d1" />
  <g
     clip-path="url(#clip0_1_2152)"
     id="g922">
    <path
       d="M 24.856,3.14401 C 23.13,1.52161 20.7739,0.601214 18.1738,0.256914 15.6907,-0.072186 14,0.00881404 14,0.00881404 c 0,0 -1.691,-0.08100004 -4.17421,0.24809996 -2.6,0.3443 -4.956,1.264696 -6.6815,2.887096 -1.6228,1.7258 -2.543099,4.0819 -2.887599,6.6819 -0.3291004,2.48299 -0.2478004,4.17399 -0.2478004,4.17399 0,0 -0.0813,1.6908 0.2478004,4.174 0.3445,2.5998 1.264799,4.9561 2.887399,6.6819 1.7257,1.6226 4.0817,2.5428 6.6817,2.8875 C 12.309,28.0722 14,27.9912 14,27.9912 c 0,0 1.6907,0.081 4.1738,-0.2479 2.6001,-0.3447 4.9562,-1.2649 6.6818,-2.8875 1.623,-1.7258 2.5432,-4.0821 2.8877,-6.6819 0.3289,-2.4832 0.2479,-4.174 0.2479,-4.174 0,0 0.081,-1.691 -0.2479,-4.17399 -0.3445,-2.6 -1.2647,-4.9561 -2.8873,-6.6819 z"
       fill="#8b8b8b"
       id="path918" />
    <path
       d="m 18.6749,6.77706 c 0.4826,0 0.9226,0.1857 1.2523,0.4894 0.3325,0.3063 0.5527,0.7325 0.5918,1.217 l 0.0058,2.00864 c 0,0.3692 0.182,0.826 0.4273,1.1151 l 1.1001,1.0429 c 0.3722,0.3489 0.5856,0.8405 0.5856,1.35 0,0.4529 -0.1686,0.8924 -0.4728,1.2351 l -1.1107,1.0508 c -0.272,0.2553 -0.4772,0.6886 -0.5209,1.077 l -0.0086,2.0101 c 0,0.4826 -0.1856,0.9227 -0.4894,1.2524 -0.3062,0.3324 -0.7324,0.5526 -1.217,0.5918 l -2.3585,0.0058 c -0.2351,0 -0.4475,-0.0951 -0.6011,-0.2488 -0.1539,-0.1539 -0.249,-0.3665 -0.249,-0.6012 0,-0.2138 0.0789,-0.4092 0.2092,-0.5586 0.1333,-0.1529 0.3205,-0.2575 0.5322,-0.2845 l 2.2347,-0.0066 0.239,-2.0202 c 0.0017,-0.818 0.3573,-1.7018 0.9251,-2.3146 l 1.0746,-1.0171 -0.9381,-1.2211 C 19.3002,12.3977 18.8919,11.5152 18.8321,10.6901 L 18.8252,8.71746 16.4546,8.47706 c -0.2329,-0.0014 -0.4433,-0.0962 -0.5958,-0.2488 -0.1539,-0.1539 -0.249,-0.3665 -0.249,-0.6012 0,-0.2138 0.0789,-0.4092 0.2092,-0.5586 0.1333,-0.1529 0.3205,-0.2575 0.5322,-0.2845 z m -7.1327,-2e-4 c 0.2346,0 0.4471,0.0952 0.6009,0.249 0.1539,0.1539 0.249,0.3664 0.249,0.601 0,0.2137 -0.0789,0.409 -0.2093,0.5584 -0.1334,0.153 -0.3207,0.2577 -0.5322,0.2847 l -2.2365,0.0066 -0.239,2.02224 c -0.0015,0.8559 -0.3332,1.6844 -0.9204,2.31 l -1.0793,1.0198 0.9381,1.223 c 0.5948,0.5602 0.996,1.4244 1.0545,2.2569 l 0.0068,1.974 2.3726,0.2404 c 0.2325,0.0014 0.443,0.0963 0.5957,0.249 0.1539,0.1539 0.249,0.3664 0.249,0.601 0,0.2137 -0.0789,0.409 -0.2093,0.5584 -0.1334,0.153 -0.3207,0.2577 -0.5322,0.2847 l -2.3255,0.0069 c -0.4829,0 -0.9229,-0.1856 -1.2525,-0.4892 C 7.7401,20.4274 7.5201,20.0012 7.481,19.5165 L 7.4752,17.5089 c 0,-0.3749 -0.178,-0.8233 -0.426,-1.1134 L 5.9469,15.349 C 5.5747,15.0011 5.3622,14.5095 5.3622,13.9999 c 0,-0.452 0.1686,-0.8914 0.4728,-1.234 l 1.1098,-1.051 C 7.2443,11.4347 7.4304,11.0516 7.4676,10.6547 L 7.4752,8.62686 c 0,-0.4827 0.1855,-0.9229 0.4892,-1.2526 0.3061,-0.3323 0.7322,-0.5525 1.217,-0.5916 z"
       fill="#ffffff"
       stroke="#ffffff"
       stroke-width="0.2"
       id="path920" />
  </g>
  <defs
     id="defs927">
    <clipPath
       id="clip0_1_2152">
      <rect
         width="28"
         height="28"
         fill="#ffffff"
         id="rect924"
         x="0"
         y="0" />
    </clipPath>
  </defs>
</svg>
